packages/foundations/assets/icons/functional/images/environment/cloud_12.svg

<svg width="12" height="12" viewBox="0 0 12 12" fill="none" xmlns="http://www.w3.org/2000/svg">
<g clip-path="url(#clip0_231_205)">
<path fill-rule="evenodd" clip-rule="evenodd" d="M4.90948 3.46322L4.80001 3.59999L4.67782 3.60307C3.78661 3.64808 3.0065 4.18271 2.63238 4.96817L2.61241 5.01239L2.56807 5.03255C1.74705 5.4234 1.20001 6.25834 1.20001 7.19999C1.20001 8.52548 2.27453 9.59999 3.60001 9.59999L8.5231 9.59669C9.80617 9.5226 10.8 8.47306 10.8 7.19999L10.7958 7.05774C10.7653 6.53893 10.5687 6.05283 10.2437 5.66344L10.1922 5.60579C10.1974 5.50847 10.2 5.43987 10.2 5.39999C10.2 3.74314 8.85687 2.39999 7.20001 2.39999C6.35483 2.43979 5.43944 2.83547 4.90948 3.46322ZM7.20001 3.59999C8.19412 3.59999 9.00001 4.40588 9.00001 5.39999C9.00001 5.50842 8.99049 5.61535 8.97175 5.72005L8.91079 6.0605L9.17484 6.28387C9.44303 6.51075 9.60001 6.8419 9.60001 7.19999C9.60001 7.83639 9.10293 8.36133 8.47107 8.39794L3.60001 8.39999C2.93727 8.39999 2.40001 7.86274 2.40001 7.19999C2.40001 6.66775 2.74977 6.20338 3.25098 6.05138L3.55781 5.95832L3.65096 5.65152C3.8033 5.14982 4.26772 4.79999 4.80001 4.79999C4.86974 4.79999 4.93845 4.80588 5.00576 4.81747L5.4237 4.88942L5.63099 4.51945C5.94678 3.95586 6.5417 3.59999 7.20001 3.59999Z" fill="#1A1C1F"/>
</g>
<defs>
<clipPath id="clip0_231_205">
<rect width="12" height="12" fill="white"/>
</clipPath>
</defs>
</svg>

<svg xmlns="http://www.w3.org/2000/svg" width="12" height="12" fill="none"><g clip-path="url(#a)"><path fill="#1A1C1F" fill-rule="evenodd" d="M4.91 3.463 4.8 3.6l-.122.003a2.4 2.4 0 0 0-2.046 1.365l-.02.044-.044.02A2.4 2.4 0 0 0 3.6 9.6l4.923-.003A2.404 2.404 0 0 0 10.8 7.2l-.004-.142a2.4 2.4 0 0 0-.552-1.395l-.052-.057q.008-.146.008-.206a3 3 0 0 0-3-3c-.845.04-1.76.435-2.29 1.063M7.2 3.6a1.8 1.8 0 0 1 1.772 2.12l-.061.34.264.224a1.2 1.2 0 0 1-.704 2.114L3.6 8.4a1.2 1.2 0 0 1-.349-2.349l.307-.093.093-.306a1.2 1.2 0 0 1 1.355-.835l.418.072.207-.37c.316-.563.91-.919 1.569-.919" clip-rule="evenodd"/></g><defs><clipPath id="a"><path fill="#fff" d="M0 0h12v12H0z"/></clipPath></defs></svg>
